TileServer und Tiles/svg/9/6_19.svg

<?xml version='1.0' encoding='UTF-8' standalone='no'?>
<svg xmlns="http://www.w3.org/2000/svg" width="497pt" viewBox="0 0 497 279" xmlns:xlink="http://www.w3.org/1999/xlink" height="279pt">
 <defs style="stroke:none;" overflow="visible">
  <path id="glyph0-5" d="M 2.25 -4.109375 L 4.3125 -4.109375 C 6.125 -4.109375 7.03125 -3.445312 7.03125 -2.125 C 7.03125 -1.476562 6.804688 -0.960938 6.359375 -0.578125 C 5.921875 -0.191406 5.222656 0 4.265625 0 L 1.109375 0 L 1.109375 -6.96875 L 2.25 -6.96875 Z M 5.890625 -2.0625 C 5.890625 -2.488281 5.738281 -2.773438 5.4375 -2.921875 C 5.132812 -3.078125 4.71875 -3.15625 4.1875 -3.15625 L 2.25 -3.15625 L 2.25 -0.921875 L 4.21875 -0.921875 C 4.695312 -0.921875 5.09375 -1.003906 5.40625 -1.171875 C 5.726562 -1.347656 5.890625 -1.644531 5.890625 -2.0625 Z M 5.890625 -2.0625 "/>
  <path id="glyph0-4" d="M 4.421875 -7.09375 C 5.273438 -7.09375 5.960938 -6.789062 6.484375 -6.1875 C 7.015625 -5.59375 7.28125 -4.695312 7.28125 -3.5 C 7.28125 -2.3125 7.015625 -1.410156 6.484375 -0.796875 C 5.960938 -0.179688 5.269531 0.125 4.40625 0.125 C 3.863281 0.125 3.414062 0.0234375 3.0625 -0.171875 C 2.71875 -0.378906 2.445312 -0.617188 2.25 -0.890625 L 2.171875 -0.890625 C 2.191406 -0.734375 2.207031 -0.539062 2.21875 -0.3125 C 2.238281 -0.09375 2.25 0.0976562 2.25 0.265625 L 2.25 3.125 L 1.109375 3.125 L 1.109375 -6.96875 L 2.046875 -6.96875 L 2.203125 -6.015625 L 2.25 -6.015625 C 2.457031 -6.316406 2.726562 -6.570312 3.0625 -6.78125 C 3.40625 -6.988281 3.859375 -7.09375 4.421875 -7.09375 Z M 4.21875 -6.140625 C 3.5 -6.140625 2.992188 -5.9375 2.703125 -5.53125 C 2.421875 -5.132812 2.269531 -4.53125 2.25 -3.71875 L 2.25 -3.5 C 2.25 -2.632812 2.390625 -1.96875 2.671875 -1.5 C 2.953125 -1.039062 3.472656 -0.8125 4.234375 -0.8125 C 4.660156 -0.8125 5.007812 -0.925781 5.28125 -1.15625 C 5.550781 -1.394531 5.753906 -1.71875 5.890625 -2.125 C 6.023438 -2.53125 6.09375 -2.992188 6.09375 -3.515625 C 6.09375 -4.304688 5.9375 -4.941406 5.625 -5.421875 C 5.320312 -5.898438 4.851562 -6.140625 4.21875 -6.140625 Z M 4.21875 -6.140625 "/>
  <path id="glyph0-3" d="M 3.796875 -7.09375 C 4.390625 -7.09375 4.898438 -6.960938 5.328125 -6.703125 C 5.765625 -6.441406 6.097656 -6.078125 6.328125 -5.609375 C 6.554688 -5.140625 6.671875 -4.585938 6.671875 -3.953125 L 6.671875 -3.265625 L 1.890625 -3.265625 C 1.910156 -2.472656 2.113281 -1.867188 2.5 -1.453125 C 2.882812 -1.046875 3.425781 -0.84375 4.125 -0.84375 C 4.5625 -0.84375 4.953125 -0.882812 5.296875 -0.96875 C 5.640625 -1.050781 5.992188 -1.171875 6.359375 -1.328125 L 6.359375 -0.328125 C 6.003906 -0.171875 5.648438 -0.0546875 5.296875 0.015625 C 4.953125 0.0859375 4.539062 0.125 4.0625 0.125 C 3.40625 0.125 2.820312 -0.00390625 2.3125 -0.265625 C 1.8125 -0.535156 1.421875 -0.9375 1.140625 -1.46875 C 0.859375 -2.007812 0.71875 -2.664062 0.71875 -3.4375 C 0.71875 -4.195312 0.84375 -4.847656 1.09375 -5.390625 C 1.351562 -5.941406 1.710938 -6.363281 2.171875 -6.65625 C 2.640625 -6.945312 3.179688 -7.09375 3.796875 -7.09375 Z M 3.78125 -6.15625 C 3.238281 -6.15625 2.804688 -5.976562 2.484375 -5.625 C 2.171875 -5.28125 1.984375 -4.796875 1.921875 -4.171875 L 5.46875 -4.171875 C 5.457031 -4.765625 5.316406 -5.242188 5.046875 -5.609375 C 4.785156 -5.972656 4.363281 -6.15625 3.78125 -6.15625 Z M 3.78125 -6.15625 "/>
  <path id="glyph0-2" d="M 6.703125 -5.21875 C 6.703125 -4.78125 6.570312 -4.4375 6.3125 -4.1875 C 6.050781 -3.945312 5.71875 -3.785156 5.3125 -3.703125 L 5.3125 -3.65625 C 5.75 -3.59375 6.125 -3.4375 6.4375 -3.1875 C 6.757812 -2.945312 6.921875 -2.566406 6.921875 -2.046875 C 6.921875 -1.453125 6.703125 -0.960938 6.265625 -0.578125 C 5.828125 -0.191406 5.109375 0 4.109375 0 L 1.109375 0 L 1.109375 -6.96875 L 4.09375 -6.96875 C 4.59375 -6.96875 5.035156 -6.910156 5.421875 -6.796875 C 5.816406 -6.691406 6.128906 -6.507812 6.359375 -6.25 C 6.585938 -6 6.703125 -5.65625 6.703125 -5.21875 Z M 5.546875 -5.0625 C 5.546875 -5.394531 5.425781 -5.632812 5.1875 -5.78125 C 4.957031 -5.9375 4.570312 -6.015625 4.03125 -6.015625 L 2.25 -6.015625 L 2.25 -4.109375 L 3.828125 -4.109375 C 4.972656 -4.109375 5.546875 -4.425781 5.546875 -5.0625 Z M 5.75 -2.046875 C 5.75 -2.441406 5.597656 -2.722656 5.296875 -2.890625 C 4.992188 -3.066406 4.546875 -3.15625 3.953125 -3.15625 L 2.25 -3.15625 L 2.25 -0.921875 L 3.984375 -0.921875 C 4.554688 -0.921875 4.992188 -1.003906 5.296875 -1.171875 C 5.597656 -1.347656 5.75 -1.640625 5.75 -2.046875 Z M 5.75 -2.046875 "/>
  <path id="glyph0-1" d="M 4.203125 0 L 3.03125 0 L 3.03125 -8.25 L 0.125 -8.25 L 0.125 -9.28125 L 7.078125 -9.28125 L 7.078125 -8.25 L 4.203125 -8.25 Z M 4.203125 0 "/>
  <path id="glyph0-0" d="M 1.21875 0 L 1.21875 -9.28125 L 6.5625 -9.28125 L 6.5625 0 Z M 1.890625 -0.65625 L 5.90625 -0.65625 L 5.90625 -8.625 L 1.890625 -8.625 Z M 1.890625 -0.65625 "/>
 </defs>
 <image width="497" xlink:href="svg/9/6_19.jpg" height="279"/>
 <g>
  <path d="M 425.75 175.84375 L 424.578125 175.84375 L 424.578125 167.59375 L 421.671875 167.59375 L 421.671875 166.5625 L 428.625 166.5625 L 428.625 167.59375 L 425.75 167.59375 Z M 425.75 175.84375 " transform=" rotate(  340 439.531 172.844) " style="fill:none;stroke-width:3;stroke-linecap:butt;stroke-linejoin:round;stroke:rgb(100%,100%,100%);stroke-opacity:0.6;stroke-miterlimit:10;"/>
  <path d="M 434.828125 170.625 C 434.828125 171.0625 434.695312 171.40625 434.4375 171.65625 C 434.175781 171.898438 433.84375 172.058594 433.4375 172.140625 L 433.4375 172.1875 C 433.875 172.25 434.25 172.40625 434.5625 172.65625 C 434.882812 172.898438 435.046875 173.277344 435.046875 173.796875 C 435.046875 174.390625 434.828125 174.882812 434.390625 175.265625 C 433.953125 175.652344 433.234375 175.84375 432.234375 175.84375 L 429.234375 175.84375 L 429.234375 168.875 L 432.21875 168.875 C 432.71875 168.875 433.160156 168.933594 433.546875 169.046875 C 433.941406 169.152344 434.253906 169.335938 434.484375 169.59375 C 434.710938 169.84375 434.828125 170.1875 434.828125 170.625 Z M 433.671875 170.78125 C 433.671875 170.449219 433.550781 170.210938 433.3125 170.0625 C 433.082031 169.90625 432.695312 169.828125 432.15625 169.828125 L 430.375 169.828125 L 430.375 171.734375 L 431.953125 171.734375 C 433.097656 171.734375 433.671875 171.417969 433.671875 170.78125 Z M 433.875 173.796875 C 433.875 173.402344 433.722656 173.121094 433.421875 172.953125 C 433.117188 172.777344 432.671875 172.6875 432.078125 172.6875 L 430.375 172.6875 L 430.375 174.921875 L 432.109375 174.921875 C 432.679688 174.921875 433.117188 174.839844 433.421875 174.671875 C 433.722656 174.496094 433.875 174.203125 433.875 173.796875 Z M 433.875 173.796875 " transform=" rotate(  340 439.531 172.844) " style="fill:none;stroke-width:3;stroke-linecap:butt;stroke-linejoin:round;stroke:rgb(100%,100%,100%);stroke-opacity:0.6;stroke-miterlimit:10;"/>
  <path d="M 439.410156 168.75 C 440.003906 168.75 440.511719 168.882812 440.941406 169.140625 C 441.378906 169.402344 441.710938 169.765625 441.941406 170.234375 C 442.167969 170.703125 442.285156 171.257812 442.285156 171.890625 L 442.285156 172.578125 L 437.503906 172.578125 C 437.523438 173.371094 437.726562 173.976562 438.113281 174.390625 C 438.496094 174.796875 439.039062 175 439.738281 175 C 440.175781 175 440.566406 174.960938 440.910156 174.875 C 441.253906 174.792969 441.605469 174.671875 441.972656 174.515625 L 441.972656 175.515625 C 441.617188 175.671875 441.261719 175.789062 440.910156 175.859375 C 440.566406 175.929688 440.152344 175.96875 439.675781 175.96875 C 439.019531 175.96875 438.433594 175.839844 437.925781 175.578125 C 437.425781 175.308594 437.035156 174.90625 436.753906 174.375 C 436.472656 173.835938 436.332031 173.179688 436.332031 172.40625 C 436.332031 171.648438 436.457031 170.996094 436.707031 170.453125 C 436.964844 169.902344 437.324219 169.480469 437.785156 169.1875 C 438.253906 168.898438 438.792969 168.75 439.410156 168.75 Z M 439.394531 169.6875 C 438.851562 169.6875 438.417969 169.867188 438.097656 170.21875 C 437.785156 170.5625 437.597656 171.046875 437.535156 171.671875 L 441.082031 171.671875 C 441.070312 171.078125 440.929688 170.601562 440.660156 170.234375 C 440.398438 169.871094 439.976562 169.6875 439.394531 169.6875 Z M 439.394531 169.6875 " transform=" rotate(  340 439.531 172.844) " style="fill:none;stroke-width:3;stroke-linecap:butt;stroke-linejoin:round;stroke:rgb(100%,100%,100%);stroke-opacity:0.6;stroke-miterlimit:10;"/>
  <path d="M 447.367188 168.75 C 448.21875 168.75 448.90625 169.054688 449.429688 169.65625 C 449.960938 170.25 450.226562 171.148438 450.226562 172.34375 C 450.226562 173.53125 449.960938 174.433594 449.429688 175.046875 C 448.90625 175.664062 448.214844 175.96875 447.351562 175.96875 C 446.808594 175.96875 446.359375 175.867188 446.007812 175.671875 C 445.664062 175.464844 445.390625 175.226562 445.195312 174.953125 L 445.117188 174.953125 C 445.136719 175.109375 445.152344 175.304688 445.164062 175.53125 C 445.183594 175.75 445.195312 175.941406 445.195312 176.109375 L 445.195312 178.96875 L 444.054688 178.96875 L 444.054688 168.875 L 444.992188 168.875 L 445.148438 169.828125 L 445.195312 169.828125 C 445.402344 169.527344 445.671875 169.273438 446.007812 169.0625 C 446.351562 168.855469 446.804688 168.75 447.367188 168.75 Z M 447.164062 169.703125 C 446.445312 169.703125 445.9375 169.90625 445.648438 170.3125 C 445.367188 170.710938 445.214844 171.3125 445.195312 172.125 L 445.195312 172.34375 C 445.195312 173.210938 445.335938 173.875 445.617188 174.34375 C 445.898438 174.804688 446.417969 175.03125 447.179688 175.03125 C 447.605469 175.03125 447.953125 174.917969 448.226562 174.6875 C 448.496094 174.449219 448.699219 174.125 448.835938 173.71875 C 448.96875 173.3125 449.039062 172.851562 449.039062 172.328125 C 449.039062 171.539062 448.882812 170.902344 448.570312 170.421875 C 448.265625 169.945312 447.796875 169.703125 447.164062 169.703125 Z M 447.164062 169.703125 " transform=" rotate(  340 439.531 172.844) " style="fill:none;stroke-width:3;stroke-linecap:butt;stroke-linejoin:round;stroke:rgb(100%,100%,100%);stroke-opacity:0.6;stroke-miterlimit:10;"/>
  <path d="M 453.1875 171.734375 L 455.25 171.734375 C 457.0625 171.734375 457.96875 172.398438 457.96875 173.71875 C 457.96875 174.367188 457.742188 174.882812 457.296875 175.265625 C 456.859375 175.652344 456.160156 175.84375 455.203125 175.84375 L 452.046875 175.84375 L 452.046875 168.875 L 453.1875 168.875 Z M 456.828125 173.78125 C 456.828125 173.355469 456.675781 173.070312 456.375 172.921875 C 456.070312 172.765625 455.65625 172.6875 455.125 172.6875 L 453.1875 172.6875 L 453.1875 174.921875 L 455.15625 174.921875 C 455.632812 174.921875 456.03125 174.839844 456.34375 174.671875 C 456.664062 174.496094 456.828125 174.199219 456.828125 173.78125 Z M 456.828125 173.78125 " transform=" rotate(  340 439.531 172.844) " style="fill:none;stroke-width:3;stroke-linecap:butt;stroke-linejoin:round;stroke:rgb(100%,100%,100%);stroke-opacity:0.6;stroke-miterlimit:10;"/>
  <g transform=" rotate(  340 439.531 172.844) " style="fill:rgb(13.333333%,13.333333%,13.333333%);fill-opacity:1;">
   <use xlink:href="#glyph0-1" y="175.844097" x="421.545681"/>
   <use xlink:href="#glyph0-2" y="175.844097" x="428.123681"/>
   <use xlink:href="#glyph0-3" y="175.844097" x="435.611681"/>
   <use xlink:href="#glyph0-4" y="175.844097" x="442.943681"/>
   <use xlink:href="#glyph0-5" y="175.844097" x="450.938681"/>
  </g>
 </g>
</svg>

<svg xmlns="http://www.w3.org/2000/svg" xmlns:xlink="http://www.w3.org/1999/xlink" viewBox="0 0 497 279"> <defs overflow="visible" style="stroke:none">  <path id="e" d="M2.3-4.1h2c1.8 0 2.7.7 2.7 2 0 .6-.2 1.1-.6 1.5-.5.4-1.2.6-2.1.6H1v-7h1.2Zm3.5 2c.1-.4-.1-.7-.4-.8-.3-.2-.7-.3-1.2-.3h-2v2.3h2.1c.4-.1.8-.1 1.1-.3.3-.1.6-.4.6-.8Zm.1.1"/>  <path id="d" d="M4.4-7c.9 0 1.6.1 2 .7.6.7 1 1.6 1 2.8-.1 1.2-.4 2-.9 2.7-.5.6-1.2 1-2 1C3.8.1 3.4 0 3-.3a2.7 2.7 0 0 1-.8-.6v4h-.9v-10H2l.2.9c.3-.3.6-.6.9-.8.3-.2.8-.2 1.3-.2Zm-.2.8c-.7.1-1.2.2-1.5.7-.3.4-.4 1-.5 1.8v.2c.1.9.3 1.5.6 2s.7.7 1.4.7c.5 0 .8-.2 1-.4.5-.2.7-.5.8-1v-1.2c0-.9-.1-1.6-.4-2.1C5.3-5.8 5-6 4.2-6Zm0 .1"/>  <path id="c" d="M3.8-7c.6 0 1.1 0 1.5.2.5.4.8.7 1 1.1.3.7.4 1.2.4 1.7v.7H1.9c0 .8.1 1.4.6 1.8.4.5 1 .7 1.6.7.5 0 .9 0 1.2-.2l1-.3v1a5.2 5.2 0 0 1-2.1.3 3.8 3.8 0 0 1-1.9-.3 2.8 2.8 0 0 1-1.2-1.2C1-2 .7-2.7.7-3.5c0-.6.1-1.2.4-1.8.3-.6.6-1.1.9-1.4A3 3 0 0 1 3.9-7Zm0 .7c-.6.1-1 .3-1.3.7-.3.3-.5.8-.6 1.4h3.6c0-.6-.2-1-.5-1.4-.2-.4-.6-.6-1.2-.6Zm0 .1"/>  <path id="b" d="M6.7-5.2c0 .4-.1.8-.4 1-.2.3-.6.4-1 .5.5.1.8.3 1.1.5.4.3.6.6.6 1.2 0 .5-.3 1-.7 1.4C5.8-.2 5 0 4 0H1.1v-7h3c.5 0 .9 0 1.3.2l1 .5c.2.3.3.6.3 1Zm-1.2.1c0-.3 0-.5-.3-.7L4-6H2.2v1.9h1.7c1.1 0 1.6-.3 1.6-1ZM5.8-2c0-.3-.3-.6-.5-.8C5-3 4.5-3.2 4-3.2H2.2v2.3H4c.6-.1 1-.1 1.3-.3.3-.1.5-.4.5-.8Zm0 0"/>  <path id="a" d="M4.2 0H3v-8.3H.1v-1h7v1H4.2Zm0 0"/>  <path d="M1.2 0v-9.3h5.4V0ZM2-.7h3.9v-8H2Zm-.1 0"/> </defs> <image xlink:href="svg/9/6_19.jpg" width="497" height="279"/> <path d="M425.8 175.8h-1.2v-8.2h-3v-1h7.1v1h-3Zm9-5.2c0 .5-.1.8-.4 1-.2.4-.6.6-1 .6.6.2.9.3 1.2.6.3.1.4.5.4 1 0 .6-.2 1-.6 1.5-.4.4-1.2.5-2.2.5h-3v-7h3l1.3.2c.5.2.8.3 1 .6.2.2.3.6.3 1Zm-1.1.2c0-.4-.1-.6-.4-.8-.2-.1-.6-.2-1.1-.2h-1.8v2h1.6c1-.1 1.7-.5 1.7-1.1Zm.2 3c0-.4-.2-.7-.5-.8-.3-.2-.7-.3-1.3-.3h-1.7v2.2h1.6c.7.1 1.1.1 1.4-.2.3-.2.6-.5.6-.9Zm5.5-5c.6 0 1.1 0 1.6.2.4.4.7.8 1 1.2.2.5.3 1 .3 1.8v.6h-4.8c0 .8.2 1.4.6 1.8.4.4 1 .6 1.6.6l1.3-.1 1-.4v1a5.2 5.2 0 0 1-2.2.5 3.8 3.8 0 0 1-1.9-.4 2.8 2.8 0 0 1-1.1-1.2c-.3-.6-.5-1.2-.5-2s.2-1.4.4-2c.3-.4.6-.9 1-1.1a3 3 0 0 1 1.8-.5Zm0 .9c-.5 0-1 .2-1.4.5-.2.4-.4.8-.5 1.5h3.6c-.1-.7-.2-1.1-.4-1.5-.3-.2-.7-.5-1.3-.5Zm8-.9c.8 0 1.5.2 2 .9.6.6.8 1.3.8 2.6 0 1.2-.2 2.1-.8 2.7-.4.7-1.2 1-2 1-.6 0-1-.1-1.4-.3a2.7 2.7 0 0 1-.8-.7v4h-1.1v-10.1h.9v1h.2c.2-.5.5-.7.8-.9.4-.1.8-.2 1.4-.2Zm-.2.9c-.8 0-1.3.2-1.6.6-.2.4-.4 1-.4 1.8v.2c0 1 .1 1.7.4 2 .4.5.8.7 1.6.7.4 0 .8 0 1-.3.3-.3.5-.7.6-1 .2-.4.2-.7.2-1.4 0-.8 0-1.3-.4-1.9-.3-.4-.8-.7-1.4-.7Zm6 2h2c1.9 0 2.8.7 2.8 2 0 .7-.3 1.3-.7 1.6-.4.4-1.1.5-2.1.5H452v-7h1.2Zm3.6 2c0-.2-.1-.5-.4-.7l-1.4-.3h-1.9v2.2h2.1c.5.1 1 .1 1.2-.2.3-.2.4-.5.4-1Zm0 .1" style="fill:none;stroke-width:3;stroke-linecap:butt;stroke-linejoin:round;stroke:#fff;stroke-opacity:.6;stroke-miterlimit:10" transform=" rotate(  340 439.531 172.844) "/> <g style="fill:#222;fill-opacity:1" transform=" rotate(  340 439.531 172.844) ">  <use xlink:href="#a" x="421.5" y="175.8"/>  <use xlink:href="#b" x="428.1" y="175.8"/>  <use xlink:href="#c" x="435.6" y="175.8"/>  <use xlink:href="#d" x="442.9" y="175.8"/>  <use xlink:href="#e" x="450.9" y="175.8"/> </g></svg>
